packages/katcn/src/icons/svg/delete.svg

<svg width="24" height="25" viewBox="0 0 24 25" fill="none" xmlns="http://www.w3.org/2000/svg">
<path d="M19.3759 5.29602H8.51627C7.20909 5.29602 5.90192 5.89602 4.99695 6.79602L1.67873 10.496C0.773758 11.496 0.773758 13.096 1.67873 14.096L4.99695 17.796C5.90192 18.796 7.20909 19.296 8.51627 19.296H19.2754C21.3869 19.296 22.9958 17.696 22.9958 15.696V8.89602C23.0963 6.89602 21.3869 5.29602 19.3759 5.29602ZM20.9847 15.696C20.9847 16.596 20.2809 17.296 19.3759 17.296H8.51627C7.71185 17.296 7.00799 16.996 6.50523 16.396L3.18701 12.696C2.9859 12.396 2.9859 12.096 3.18701 11.796L6.60578 8.09602C7.00799 7.59602 7.81241 7.29602 8.51627 7.29602H19.2754C20.2809 7.29602 20.9847 7.99602 20.9847 8.89602V15.696Z" fill="black"/>
<path d="M17.5 8.69603C17.1 8.29603 16.5 8.29603 16.1 8.69603L14 10.896L11.9 8.69603C11.5 8.29603 10.9 8.29603 10.5 8.69603C10.1 9.09603 10.1 9.69603 10.5 10.096L12.5 12.296L10.3 14.496C9.9 14.896 9.9 15.496 10.3 15.896C10.5 16.096 10.8 16.196 11 16.196C11.2 16.196 11.5 16.096 11.7 15.896L13.8 13.696L15.9 15.896C16.1 16.096 16.4 16.196 16.6 16.196C16.8 16.196 17.1 16.096 17.3 15.896C17.7 15.496 17.7 14.896 17.3 14.496L15.3 12.296L17.4 10.096C17.9 9.79603 17.9 9.09603 17.5 8.69603Z" fill="black"/>
</svg>

<svg xmlns="http://www.w3.org/2000/svg" fill="none" viewBox="0 0 24 25"><path fill="#000" d="M19.376 5.296H8.516c-1.307 0-2.614.6-3.519 1.5l-3.318 3.7c-.905 1-.905 2.6 0 3.6l3.318 3.7c.905 1 2.212 1.5 3.52 1.5h10.758c2.112 0 3.72-1.6 3.72-3.6v-6.8c.101-2-1.608-3.6-3.62-3.6m1.609 10.4c0 .9-.704 1.6-1.61 1.6H8.517c-.804 0-1.508-.3-2.01-.9l-3.319-3.7q-.302-.45 0-.9l3.419-3.7c.402-.5 1.206-.8 1.91-.8h10.76c1.005 0 1.709.7 1.709 1.6z"/><path fill="#000" d="M17.5 8.696c-.4-.4-1-.4-1.4 0l-2.1 2.2-2.1-2.2c-.4-.4-1-.4-1.4 0s-.4 1 0 1.4l2 2.2-2.2 2.2c-.4.4-.4 1 0 1.4.2.2.5.3.7.3s.5-.1.7-.3l2.1-2.2 2.1 2.2c.2.2.5.3.7.3s.5-.1.7-.3c.4-.4.4-1 0-1.4l-2-2.2 2.1-2.2c.5-.3.5-1 .1-1.4"/></svg>
